X:1
T:From lowest depths of woe
T:John Broderip
T:p35, A Second Book of New Anthems and Psalm Tunes, London: [1749]
T:This edition by Edmund Gooch released into the public domain, June 2015.
T:From lowest depths of woe
T:Psalm 130th, New Version
C:John Broderip
Z:p35, A Second Book of New
Z:Anthems and Psalm Tunes,
Z:London: [1749]
%%score [ 1 2 3 4 ]
L:1/8
M:3/2
K:C
V:1 treble nm="Treble" snm="Tr."
V:2 treble nm="Alto" snm="A."
V:3 treble-8 transpose=-12 nm="Tenor" snm="T."
V:4 bass nm="Bass" snm="B."
V:1
 e4 d4 c4 | B8 A4 | ^G12 | c4 G4 A4 | d8 c4 | B12 | e4 e4 d4 | d8 c4 | f8 f4 | e12 | e4 d4 c4 | %11
w: My soul with|pa- tience|waits|For thee, the|li- ving|Lord;|My hopes are|on thy|pro- mise|built,|Thy ne- ver-|
w: From low- est|depths of|woe|To God I|sent my|cry;|Lord, hear my|sup- pli-|ca- ting|voice|And gra- cious-|
w: Should’st thou se-|vere- ly|judge,|Who can the|tri- al|bear?|But thou for-|giv’st, lest|we des-|pond,|And quite re-|
 B8 A4 | d12- | d12 | e4 d4 c4 | (B6 A2) ^G4 | A12 |] %17
w: fai- ling|word,|_|thy ne- ver-|fai- * ling|word.|
w: ly re-|ply,|_|and gra- cious-|ly _ re-|ply.|
w: nounce thy|fear,|_|and quite re-|nounce _ thy|fear.|
V:2
 A4 ^G4 A4 | E8 E4 | E12 | E4 G4 C4 | G8 G4 | G12 | G4 G4 G4 | G8 E4 | (A4 F4) D4 | E12 | %10
w: My soul with|pa- tience|waits|For thee, the|li- ving|Lord;|My hopes are|on thy|pro- * mise|built,|
w: From low- est|depths of|woe|To God I|sent my|cry;|Lord, hear my|sup- pli-|ca- * ting|voice|
w: Should’st thou se-|vere- ly|judge,|Who can the|tri- al|bear?|But thou for-|giv’st, lest|we _ des-|pond,|
 A4 ^G4 A4 | E8 E4 | (F8 D4 | E12) | A4 ^G4 A4 | F8 E4 | E12 |] %17
w: Thy ne- ver-|fai- ling|word, _|_|thy ne- ver-|fai- ling|word.|
w: And gra- cious-|ly re-|ply, _|_|and gra- cious-|ly re-|ply.|
w: And quite re-|nounce thy|fear, _|_|and quite re-|nounce thy|fear.|
V:3
 c4 B4 A4 | (e4 d4) c4 | B12 | c4 c4 A4 | G8 e4 | d12 | c4 c4 B4 | B8 A4 | (c4 d4) B4 | c12 | %10
w: My soul with|pa- * tience|waits|For thee, the|li- ving|Lord;|My hopes are|on thy|pro- * mise|built,|
w: From low- est|depths _ of|woe|To God I|sent my|cry;|Lord, hear my|sup- pli-|ca- * ting|voice|
w: Should’st thou se-|vere- * ly|judge,|Who can the|tri- al|bear?|But thou for-|giv’st, lest|we _ des-|pond,|
 c4 B4 A4 | (e4 d4) c4 | (d6 c2 B2 A2 | ^G12) | c4 B4 A4 | d8 B4 | A12 |] %17
w: Thy ne- ver-|fai- * ling|word, _ _ _|_|thy ne- ver-|fai- ling|word.|
w: And gra- cious-|ly _ re-|ply, _ _ _|_|and gra- cious-|ly re-|ply.|
w: And quite re-|nounce _ thy|fear, _ _ _|_|and quite re-|nounce thy|fear.|
V:4
 A,4 B,4 C4 | ^G,8 A,4 | E,12 | C,4 E,4 F,4 | B,,8 C,4 | G,12 | C,4 C,4 G,4 | G,8 A,4 | %8
w: My soul with|pa- tience|waits|For thee, the|li- ving|Lord;|My hopes are|on thy|
w: From low- est|depths of|woe|To God I|sent my|cry;|Lord, hear my|sup- pli-|
w: Should’st thou se-|vere- ly|judge,|Who can the|tri- al|bear?|But thou for-|giv’st, lest|
"^Emendations: Clefs in the source are treble, alto, tenor and bass. The first verse only of the text is given in the source:three further verses have been added editorially." D,8 G,4 | %9
w: pro- mise|
w: ca- ting|
w: we des-|
 C,12 | A,4 B,4 C4 | ^G,8 A,4 | (F,12 | E,12) | A,4 B,4 C4 | D,8 E,4 | A,,12 |] %17
w: built,|Thy ne- ver-|fai- ling|word,|_|thy ne- ver-|fai- ling|word.|
w: voice|And gra- cious-|ly re-|ply,|_|and gra- cious-|ly re-|ply.|
w: pond,|And quite re-|nounce thy|fear,|_|and quite re-|nounce thy|fear.|

